!!!COM: Bach, Johann Sebastian
!!!OPR: Joh. Seb. Bachs vierstimmige Choralges‰nge
!!!XEN: Four-part Chorales
!!!OTL: 172. Was willt du dich, o meine Seele, kr‰nken
!!!SCT: BWV 425
!!!SCA: Thematisch-systematisches Verzeichnis der musikalischen Werke Johann Sebastian Bach: Bach-Werke-Verzeichnis (Schmieder)
!!!YOR: Bach Gesellschaft Edition xxxix
!!!ENC: Steven Rasmussen
!!!CDT: 1685/3//-1750/7/28/
!!!OCY: Deutschland
!!!YEC: Copyright (c) 1994, 2000 Center for Computer Assisted Research in the Humanities
!!!YEM: Rights to all derivative editions reserved
!!!YEN: United States of America
**kern	**silbe	**kern	**silbe	**kern	**silbe	**kern
*I:[SOPRANO]	*I:[SOPRANO]	*I:[ALTO]	*I:[ALTO]	*I:[TENORE]	*I:[TENORE]	*I:[BASSO]
*clefG2	*	*clefG2	*	*clefGv2	*	*clefF4
*k[]	*	*k[]	*	*k[]	*	*k[]
*a:	*	*a:	*	*a:	*	*a:
*M4/4	*	*M4/4	*	*M4/4	*	*M4/4
4a	Was	4A	.	8FL	.	8DL
.	.	.	.	8GJ	.	8EJ
=1	=1	=1	=1	=1	=1	=1
4.d	willt	4A	.	4A	.	8FL
.	.	.	.	.	.	8GJ
.	.	8BL	.	4G	.	8FL
8e	du	8c#J	.	.	.	8EJ
4f	dich,	(8d	.	4A	.	4D
.	.	4f)	.	.	.	.
4g	o	.	.	4c	.	4C
.	.	8e	.	.	.	.
=2	=2	=2	=2	=2	=2	=2
8aL	mei-	8fL	.	8cL	.	4F
8bJ	.	8gJ	.	8dJ	.	.
4cc	-ne	8gL	.	4e	.	8EL
.	.	8aJ	.	.	.	8F#J
4b	See-	8gL	.	4.d	.	8GL
.	.	8fJ	.	.	.	8G#J
4a	-le,	4e	.	.	.	8AL
.	.	.	.	8c	.	8CJ
=3	=3	=3	=3	=3	=3	=3
4a	kr√§n-	4f	.	4.B	.	8DL
.	.	.	.	.	.	8BBJ
4g#	.	4e	.	.	.	4E
.	.	.	.	8d	.	.
4a;	-ken?	4e;	.	4c;	.	4AA;
4a	Meinst	8eL	.	4c	.	4AA
.	.	8fJ	.	.	.	.
=4	=4	=4	=4	=4	=4	=4
4g	du,	8fL	.	8dL	.	4BB
.	.	16eL	.	8GJ	.	.
.	.	16dJJ	.	.	.	.
4g	dass	8eL	.	4c	.	8CL
.	.	8fJ	.	.	.	8DJ
4cc	Gott	8gL	.	4c	.	8EL
.	.	8eJ	.	.	.	8CJ
4a	nicht	4f	.	4c	.	8FL
.	.	.	.	.	.	8E-J
=5	=5	=5	=5	=5	=5	=5
8b-	kann	4f	.	8dL	.	8DL
8a	an	.	.	8AJ	.	8CJ
8g	dich	8e	an	4c	an	8BB-L
8f	ge-	4f	dich	.	.	8AAJ
4.g	-den-	.	.	8d	dich	8BB-
.	.	16eLL	ge-	8B-	ge-	8GG
.	.	16dJJ	.	.	.	.
.	.	4e	-den-	8GL	-den-	4C
8f	.	.	.	16cL	.	.
.	.	.	.	16B-JJ	.	.
=6	=6	=6	=6	=6	=6	=6
2f;	-ken?	2c;	-ken?	2A;	-ken?	2FF;
4r	.	4r	.	4r	.	4r
4a	Er	4d	.	8FL	.	8DL
.	.	.	.	8GJ	.	8EJ
=7	=7	=7	=7	=7	=7	=7
4d	weiss	8dL	.	4A	.	4F
.	.	8AJ	.	.	.	.
4e	gar	8B-L	.	4G	.	4C#
.	.	8AJ	.	.	.	.
4f	wohl,	(8A	.	8FL	.	4D
.	.	4d)	.	8B-J	.	.
4g	wann	.	.	4B-	.	4E
.	.	8c#	.	.	.	.
=8	=8	=8	=8	=8	=8	=8
8aL	er	4d	.	8AL	.	8FL
8bJ	.	.	.	8GJ	.	16GL
.	.	.	.	.	.	16FJJ
4cc	dir	8gL	.	8GL	.	8EL
.	.	8fJ	.	8AJ	.	16FL
.	.	.	.	.	.	16EJJ
4.b	hel-	8fL	.	8AL	.	8DL
.	.	8d	.	16G#L	.	8BBJ
.	.	.	.	16F#JJ	.	.
.	.	8BJ	.	4G#	.	4E
8a	-fen	16eLL	.	.	.	.
.	.	16dJJ	.	.	.	.
=9	=9	=9	=9	=9	=9	=9
2a;	soll;	2c;	.	2E;	.	2AA;
4r	.	4r	.	4r	.	4r
4a	denn	4f	.	4c	.	4AA
=10	=10	=10	=10	=10	=10	=10
4g	er	8fL	.	8dL	.	4BB
.	.	16eL	.	8GJ	.	.
.	.	16dJJ	.	.	.	.
4g	ist	8eL	.	4c	.	8CL
.	.	8fJ	.	.	.	8DJ
4cc	selbst	8gL	.	4c	.	8EL
.	.	8eJ	.	.	.	8CJ
4a	der	8fL	.	8cL	.	8FL
.	.	8aJ	.	8fJ	.	8DJ
=11	=11	=11	=11	=11	=11	=11
8b-L	Gnad'	8gL	.	(8d	.	8GL
8aJ	.	8fJ	.	4c#)	.	8AJ
8gL	und	8eL	.	.	.	8B-L
8fJ	.	8dJ	.	8d	.	8AJ
4.e	G√º-	8dL	.	(8B-	.	8GL
.	.	16c#L	.	4G)	.	8EJ
.	.	16BJJ	.	.	.	.
.	.	4c#	.	.	.	8AL
8d	-te	.	.	16ALL	.	8AAJ
.	.	.	.	16GJJ	.	.
=12	=12	=12	=12	=12	=12	=12
2d;	voll.	2A;	.	2F;	.	2D;
4r	.	4r	.	4r	.	4r
4a	Halt	4f	.	8dL	.	4D
.	.	.	.	8cJ	.	.
=13	=13	=13	=13	=13	=13	=13
8gL	ihm	4e	.	8B-L	.	8DL
8aJ	.	.	.	8AJ	.	8C#J
8fL	nur	4d	.	8AL	.	8DL
8gJ	.	.	.	16GL	.	8BB-J
.	.	.	.	16AJJ	.	.
4.e	stil-	8dL	.	8B-L	.	8GGL
.	.	16c#L	.	8G	.	8EEJ
.	.	16BJJ	.	.	.	.
.	.	4c#	.	8E	.	4AA
8d	.	.	.	16AL	.	.
.	.	.	.	16GJJ	.	.
=14	=14	=14	=14	=14	=14	=14
2d;	-le;	2d;	.	2F;	.	2BB-;
4r	.	4r	.	4r	.	4r
4a	es	4c	.	8FL	.	4F
.	.	.	.	8GJ	.	.
=15	=15	=15	=15	=15	=15	=15
4a	ge-	8cL	.	8AL	.	8FL
.	.	16dL	.	16BL	.	8EJ
.	.	16eJJ	.	16cJJ	.	.
4b	-het	8fL	.	8dL	.	8DL
.	.	16eL	.	8BJ	.	8GJ
.	.	16dJJ	.	.	.	.
4cc	so	8gL	.	8GL	.	8EL
.	.	16fL	.	16cL	.	16AL
.	.	16gJJ	.	16BJJ	.	16GJJ
4cc	sein	4a	.	8AL	.	8FL
.	.	.	.	8cJ	.	8EJ
=16	=16	=16	=16	=16	=16	=16
2b	Wil-	8aL	.	8fL	.	8DL
.	.	16g#L	.	8d	.	8BBJ
.	.	16f#JJ	.	.	.	.
.	.	4g#	.	8B	.	4E
.	.	.	.	16eL	.	.
.	.	.	.	16dJJ	.	.
4a;	-le.	4e;	.	4c#;	.	4AA;
4a	Wie	4fn	.	4d	.	8DL
.	.	.	.	.	.	8CJ
=17	=17	=17	=17	=17	=17	=17
4g	kann	4f	.	8dL	.	8BBL
.	.	.	.	16cL	.	8GGJ
.	.	.	.	16BJJ	.	.
4g	er	8fL	.	4c	.	8CL
.	.	16eL	.	.	.	8BB-J
.	.	16dJJ	.	.	.	.
4cc	dich	4e	.	4c	.	8AAL
.	.	.	.	.	.	8GGJ
4a	doch	4f	.	8cL	.	4FF
.	.	.	.	16dL	.	.
.	.	.	.	16cJJ	.	.
=18	=18	=18	=18	=18	=18	=18
8b-	las-	16fLL	.	8B-	.	8GGL
.	.	16eJJ	.	.	.	.
8a	-sen	8f	.	8c	.	16AAL
.	.	.	.	.	.	16BB-JJ
8g	in	8e	.	16cLL	.	8C
.	.	.	.	16B-JJ	.	.
8f	den	8f	.	8A	.	8D
4.g	Ban-	8fL	.	16GLL	.	8BB-L
.	.	.	.	16AJJ	.	.
.	.	16eL	.	4B-	.	8GG
.	.	16dJJ	.	.	.	.
.	.	4e	.	.	.	8C
8f	.	.	.	16cLL	.	8CCJ
.	.	.	.	16B-JJ	.	.
=19	=19	=19	=19	=19	=19	=19
2f;	-den.	2c;	.	2A;	.	2FF;
4r	.	4r	.	4r	.	4r
4a	Du	4c	.	4F	.	4F
=20	=20	=20	=20	=20	=20	=20
4d	bist	4B	.	4.G	.	4F
4e	ja	4c#	.	.	.	4E
.	.	.	.	16FLL	.	.
.	.	.	.	16GJJ	.	.
8fL	sei-	4d	.	4.A	.	4D
8gJ	.	.	.	.	.	.
4a	-ne	4c#	.	.	.	4AA
.	.	.	.	8G	.	.
=21	=21	=21	=21	=21	=21	=21
2d;	Braut.	2d;	.	2F;	.	2BB-;
4r	.	4r	.	4r	.	4r
4e	Wer	4c#	.	4A	.	4AA
=22	=22	=22	=22	=22	=22	=22
4f	hofft	4d	.	4A	.	8DL
.	.	.	.	.	.	8FJ
4e	in	4c#	.	4A	.	8AL
.	.	.	.	.	.	8GJ
4f	Gott	8dL	.	4A	.	4.F
.	.	8cnJ	.	.	.	.
4g	und	8B-L	.	8dL	.	.
.	.	8cJ	.	16cL	.	8E
.	.	.	.	16B-JJ	.	.
=23	=23	=23	=23	=23	=23	=23
4a	dem	8cL	.	8AL	.	8FL
.	.	16dL	.	16BL	.	8EJ
.	.	16eJJ	.	16cJJ	.	.
4b	ver-	8fL	.	8dL	.	8DL
.	.	16eL	.	8BJ	.	8GJ
.	.	16dJJ	.	.	.	.
8ccL	-traut,	8eL	.	8GL	.	8CL
8bJ	.	16fL	.	8dJ	.	16DL
.	.	16gJJ	.	.	.	16EJJ
4a	wird	8aL	.	4c	.	8FL
.	.	8gJ	.	.	.	8EJ
=24	=24	=24	=24	=24	=24	=24
4dd	nim-	8f#L	.	8cL	.	8DL
.	.	8gJ	.	8B-J	.	8EJ
4cc	-mer-	8aL	.	8AL	.	8F#L
.	.	8f#J	.	8dJ	.	8DJ
8b-L	-mehr	4d	.	8dL	.	4.G
8aJ	.	.	.	8cJ	.	.
8gL	zu	8eL	.	8B-L	.	.
8fJ	.	8dJ	.	8BnJ	.	8G#
=25	=25	=25	=25	=25	=25	=25
4.e	Schan-	8dL	.	[4E	.	4A
.	.	16c#L	.	.	.	.
.	.	16BJJ	.	.	.	.
.	.	4c#	.	16ELL]	.	4AA
.	.	.	.	16FJ	.	.
8d	.	.	.	8GJ	.	.
2d;	-den.	2A;	.	2F#;	.	2D;
==|!	==|!	==|!	==|!	==|!	==|!	==|!
*-	*-	*-	*-	*-	*-	*-
!!!RWG: Key is interpreted using the Humdrum key tool.
!!!END: 1994/08/08
!!!EMD: Converted from MuseData to Humdrum Dec 19, 2000, by Andreas Kornstaedt using muse2kern.
!!!EED: Craig Stuart Sapp
!!!EEV: 2024/03/31
!!!ONB: Some non-unicode characters
